src/assets/icons/Books_Selected.svg

<svg width="26" height="24" viewBox="0 0 26 24" fill="none" xmlns="http://www.w3.org/2000/svg">
<path fill-rule="evenodd" clip-rule="evenodd" d="M0 2.38371C0 1.75151 0.287795 1.14521 0.800074 0.698173C1.31235 0.25114 2.00715 0 2.73162 0H5.46325C5.96041 0 6.42751 0.11561 6.82906 0.319417C7.24431 0.110182 7.71537 1.8411e-05 8.19487 0H10.9265C11.9194 0 12.7895 0.46244 13.2675 1.15491C13.5543 0.954677 13.8903 0.802119 14.2673 0.713922L16.906 0.0977322C17.2526 0.016618 17.614 -0.0041325 17.9697 0.0366661C18.3254 0.0774647 18.6685 0.179013 18.9792 0.335512C19.2899 0.49201 19.5623 0.700392 19.7807 0.948758C19.9992 1.19712 20.1594 1.48061 20.2523 1.78302L25.9067 20.2032C25.9997 20.5055 26.0235 20.8209 25.9767 21.1314C25.93 21.4418 25.8136 21.7411 25.6342 22.0123C25.4549 22.2834 25.2161 22.5211 24.9315 22.7117C24.6469 22.9023 24.322 23.0422 23.9755 23.1232L21.3367 23.7394C20.9902 23.8205 20.6288 23.8413 20.273 23.8005C19.9173 23.7597 19.5743 23.6581 19.2636 23.5016C18.9528 23.3451 18.6805 23.1367 18.462 22.8884C18.2436 22.64 18.0834 22.3565 17.9905 22.0541L13.6581 7.94134V21.4534C13.6581 22.0856 13.3703 22.6919 12.858 23.1389C12.3458 23.586 11.651 23.8371 10.9265 23.8371H8.19487C7.71537 23.8371 7.24431 23.7269 6.82906 23.5177C6.41381 23.7269 5.94276 23.8371 5.46325 23.8371H2.73162C2.00715 23.8371 1.31235 23.586 0.800074 23.1389C0.287795 22.6919 0 22.0856 0 21.4534V2.38371ZM2.73162 2.38371H5.46325V21.4534H2.73162V2.38371ZM10.9265 21.4534H8.19487V2.38371H10.9265V21.4534ZM14.9748 3.01659L17.6122 2.4004L23.2693 20.8205L20.6306 21.4367L14.9748 3.01659Z" fill="black"/>
</svg>

<svg xmlns="http://www.w3.org/2000/svg" width="26" height="24" fill="none" viewBox="0 0 26 24"><path fill="#000" fill-rule="evenodd" d="M0 2.384C0 1.752.288 1.145.8.698S2.007 0 2.732 0h2.731c.497 0 .965.116 1.366.32C7.244.11 7.715 0 8.195 0h2.732c.992 0 1.863.462 2.34 1.155a2.9 2.9 0 0 1 1-.441l2.639-.616A3.1 3.1 0 0 1 17.97.037c.355.04.699.142 1.01.299.31.156.582.364.8.613.22.248.38.532.472.834l5.655 18.42c.093.303.116.618.07.928-.047.31-.163.61-.343.881s-.418.51-.703.7a2.9 2.9 0 0 1-.956.411l-2.638.616a3.1 3.1 0 0 1-1.064.061 3 3 0 0 1-1.01-.298 2.7 2.7 0 0 1-.801-.614 2.3 2.3 0 0 1-.471-.834L13.658 7.941v13.512c0 .633-.288 1.239-.8 1.686s-1.207.698-1.931.698H8.195c-.48 0-.95-.11-1.366-.32-.415.21-.886.32-1.366.32H2.732c-.725 0-1.42-.251-1.932-.698S0 22.086 0 21.453zm2.732 0h2.731v19.07H2.732zm8.195 19.07H8.195V2.383h2.732zm4.048-18.437 2.637-.617 5.657 18.42-2.638.617z" clip-rule="evenodd"/></svg>
